icons/linear-ele-container-bag-sold-out.svg

<svg xmlns="http://www.w3.org/2000/svg" width="32px" height="32px" viewBox="0 0 32 32" version="1.1">
    <title>linear-ele-container-bag-sold-out</title>
    <g id="linear-ele-container-bag-sold-out" stroke-width="1" fill-rule="evenodd">
        <path d="M23,18 C23.5522847,18 24,18.4477153 24,19 L23.9998815,26.585 L26.2928932,24.2928932 C26.6533772,23.9324093 27.2206082,23.9046797 27.6128994,24.2097046 L27.7071068,24.2928932 C28.0976311,24.6834175 28.0976311,25.3165825 27.7071068,25.7071068 L23.7071068,29.7071068 L23.6461138,29.7633128 L23.5517705,29.8341416 L23.4538349,29.8913373 L23.3400033,29.9407132 L23.265993,29.9641549 L23.1174742,29.9931658 L23,30 L22.9247615,29.9972121 L22.7992742,29.9797599 L22.6878575,29.9502619 L22.5767785,29.9063266 L22.4762,29.8521085 L22.3829339,29.7870379 L22.2928932,29.7071068 L18.2928932,25.7071068 C17.9023689,25.3165825 17.9023689,24.6834175 18.2928932,24.2928932 C18.6834175,23.9023689 19.3165825,23.9023689 19.7071068,24.2928932 L21.9998815,26.585 L22,19 C22,18.4477153 22.4477153,18 23,18 Z M16,2 C19.3137085,2 22,4.6862915 22,8 L21.9998815,9 L26,9 C26.5095492,9 26.9376134,9.38313579 26.9938837,9.88956847 L27.6728815,16 L25.6608815,16 L25.105,11 L21.9998815,11 L22,14 C22,14.5522847 21.5522847,15 21,15 C20.4477153,15 20,14.5522847 20,14 L19.9998815,11 L11.9998815,11 L12,14 C12,14.5522847 11.5522847,15 11,15 C10.4477153,15 10,14.5522847 10,14 L9.99988145,11 L6.894,11 L5.116,27 L15.9998815,27 L15.9998815,29 L4,29 C3.4039887,29 2.94029783,28.4819344 3.00611627,27.8895685 L5.00611627,9.88956847 C5.06238656,9.38313579 5.49045078,9 6,9 L9.99988145,9 L10,8 C10,4.6862915 12.6862915,2 16,2 Z M16,4 C13.790861,4 12,5.790861 12,8 L11.9998815,9 L19.9998815,9 L20,8 C20,5.790861 18.209139,4 16,4 Z" id="&#24418;&#29366;" fill-rule="nonzero" />
    </g>
</svg>

<svg xmlns="http://www.w3.org/2000/svg" viewBox="0 0 32 32"><path fill="currentColor" d="M23 18a1 1 0 0 1 1 1v7.585l2.293-2.292a1 1 0 0 1 1.32-.083l.094.083a1 1 0 0 1 0 1.414l-4 4-.06.056-.095.071-.098.057-.114.05-.074.023-.149.03L23 30l-.075-.003-.126-.017-.111-.03-.111-.044-.1-.054-.094-.065-.09-.08-4-4a1 1 0 0 1 1.414-1.414L22 26.585V19a1 1 0 0 1 1-1M16 2a6 6 0 0 1 6 6v1h4a1 1 0 0 1 .994.89l.679 6.11H25.66l-.556-5H22v3a1 1 0 0 1-2 0v-3h-8v3a1 1 0 0 1-2 0v-3H6.894L5.116 27H16v2H4a1 1 0 0 1-.994-1.11l2-18A1 1 0 0 1 6 9h4V8a6 6 0 0 1 6-6m0 2a4 4 0 0 0-4 4v1h8V8a4 4 0 0 0-4-4"/></svg>
